gama.ui.shared/icons_svg/dark/toolbar/font.increase.svg

<svg height="24.75" viewBox="-812.135 -2876.228 24.75 24.75" width="24.75" xmlns="http://www.w3.org/2000/svg"><g fill="none"><circle cx="-799.76" cy="-2863.853" fill="#666" r="8"/><circle cx="-799.76" cy="-2863.853" r="8"/><circle cx="-799.76" cy="-2863.853" fill="#666" r="8"/><circle cx="-799.76" cy="-2863.853" r="8"/><path d="m-799.3792-2864.234h2.6667c.2104 0 .3809.1704.3809.3808s-.1705.381-.3809.381h-2.6667v2.6666c0 .2106-.1705.381-.3809.381s-.381-.1704-.381-.381v-2.6666h-2.6666c-.2104 0-.381-.1706-.381-.381s.1706-.3808.381-.3808h2.6666v-2.6668c0-.2104.1706-.3809.381-.3809s.3809.1705.3809.3809zm-.3809 8.3808c-4.4183 0-8-3.5818-8-8 0-4.4183 3.5817-8 8-8 4.41825 0 8 3.5817 8 8 0 4.4182-3.58175 8-8 8zm0-.7618c3.9975 0 7.2381-3.2407 7.2381-7.2382s-3.2406-7.2381-7.2381-7.2381-7.2381 3.2406-7.2381 7.2381 3.2406 7.2382 7.2381 7.2382z" fill="#c0e0ff"/></g></svg>

<?xml version="1.0" encoding="UTF-8" standalone="no"?>
<!DOCTYPE svg PUBLIC "-//W3C//DTD SVG 1.1//EN" "http://www.w3.org/Graphics/SVG/1.1/DTD/svg11.dtd">
<svg xmlns="http://www.w3.org/2000/svg" xmlns:dc="http://purl.org/dc/elements/1.1/" version="1.1" xmlns:xl="http://www.w3.org/1999/xlink" viewBox="-812.1351 -2876.2282 24.75 24.75" width="24.75" height="24.75">
  <defs/>
  <g id="SOURCES" stroke-dasharray="none" stroke-opacity="1" stroke="none" fill="none" fill-opacity="1">
    <title>SOURCES</title>
    <g id="SOURCES_Dark">
      <title>Dark</title>
      <g id="Group_12303">
        <g id="Graphic_12307">
          <circle cx="-799.7601" cy="-2863.8532" r="8.00000702080163" fill="#666"/>
          <circle cx="-799.7601" cy="-2863.8532" r="8.00000702080163" stroke="black" stroke-linecap="round" stroke-linejoin="round" stroke-width="0"/>
        </g>
        <g id="Graphic_12306"/>
        <g id="Graphic_12305">
          <circle cx="-799.7601" cy="-2863.8532" r="8.00000702080163" fill="#666"/>
          <circle cx="-799.7601" cy="-2863.8532" r="8.00000702080163" stroke="black" stroke-linecap="round" stroke-linejoin="round" stroke-width="0"/>
        </g>
        <g id="Graphic_12304">
          <path d="M -799.3792 -2864.234 L -796.7125 -2864.234 C -796.5021 -2864.234 -796.3316 -2864.0636 -796.3316 -2863.8532 C -796.3316 -2863.6428 -796.5021 -2863.4722 -796.7125 -2863.4722 L -799.3792 -2863.4722 L -799.3792 -2860.8056 C -799.3792 -2860.595 -799.5497 -2860.4246 -799.7601 -2860.4246 C -799.9705 -2860.4246 -800.1411 -2860.595 -800.1411 -2860.8056 L -800.1411 -2863.4722 L -802.8077 -2863.4722 C -803.0181 -2863.4722 -803.1887 -2863.6428 -803.1887 -2863.8532 C -803.1887 -2864.0636 -803.0181 -2864.234 -802.8077 -2864.234 L -800.1411 -2864.234 L -800.1411 -2866.9008 C -800.1411 -2867.1112 -799.9705 -2867.2817 -799.7601 -2867.2817 C -799.5497 -2867.2817 -799.3792 -2867.1112 -799.3792 -2866.9008 Z M -799.7601 -2855.8532 C -804.1784 -2855.8532 -807.7601 -2859.435 -807.7601 -2863.8532 C -807.7601 -2868.2715 -804.1784 -2871.8532 -799.7601 -2871.8532 C -795.34185 -2871.8532 -791.7601 -2868.2715 -791.7601 -2863.8532 C -791.7601 -2859.435 -795.34185 -2855.8532 -799.7601 -2855.8532 Z M -799.7601 -2856.615 C -795.7626 -2856.615 -792.522 -2859.8557 -792.522 -2863.8532 C -792.522 -2867.8507 -795.7626 -2871.0913 -799.7601 -2871.0913 C -803.7576 -2871.0913 -806.9982 -2867.8507 -806.9982 -2863.8532 C -806.9982 -2859.8557 -803.7576 -2856.615 -799.7601 -2856.615 Z" fill="#c0e0ff"/>
        </g>
      </g>
    </g>
  </g>
</svg>
